X:1
T:5 Lieder
T:Im Vorübergehn
T:Carl Loewe
T:Text: J. W. von Goethe
T:Im Vorübergehn
T:Nr. 1 aus 5 Lieder Op. 81
T:CPDL - Creative Commons Attribution Non Commercial 3.0
T:CPDL - Creative Commons Attribution Non Commercial 3.0
T:CPDL - Creative Commons Attribution Non Commercial 3.0
T:CPDL - Creative Commons Attribution Non Commercial 3.0
C:Carl Loewe
Z:Johann Wolfgang von Goethe
Z:CPDL - Creative Commons Attribution Non Commercial 3.0
%%score [ 1 2 3 4 ]
L:1/8
Q:1/4=90
M:3/4
K:F
V:1 treble nm="S"
V:2 treble nm="A"
V:3 treble-8 nm="T"
V:4 bass nm="B"
V:1
"^Moderato"!p! FF F | G2 GF G^G | A2 z A !>!BA | G2 GG AG | G2 z | GA =B | c2 c d/e/ fe | %7
w: Ich ging im|Fel- de so für mich|hin, und~ nichts~ zu|su- chen, das war mein|Sinn.|Da stand ein|Blüm- chen so- * gleich so|
 d2 z!f! d dd | !>!g2 d"^dim." d/c/ c/=B/ B/A/ | G2 z |"^cresc." GA =B | c2 c"^dim."=B A^G | %12
w: nah, dass~ ich im|Le- ben nichts _ lie _ ber _|sah.|Ich wollt es|bre- chen, da sagt' es|
 =B2 A!pp!A AA | Ac/=B/ AA AA | Ac/=B/ A |"^cresc." A_B A | !>!G2 GG G B/A/ | !>!G2 FA dc | %18
w: schleu- nig: Ich ha- be|Wur- * * zeln, die sind gar|heim- * * lich.|Im tie- fen|Bo- den bin ich ge- *|grün- det; drum sind die|
 c=B!<(! Bd g>!<)!B |!>(! =Bd/c/!>)! c | c=B _B | !>!BA A"^dim."B AG | GF FF GA | %23
w: Blü- * ten so schön ge-|rün- * * det.|Ich kann nicht|lie- * beln, ich kann nicht|schran- * zen; musst mich nicht|
 Ac/B/ B!<(!d dd!<)! |!f!!>(! c6- | c6!>)! | F2 z |!p! FF F | G2 GF G^G | A2 z"^cresc." A Bc | %30
w: bre- * * chen, musst mich ver-|pflan-||zen.|Ich ging im|Wal- de so vor~ mich|hin; ich war so|
 !>!d2 c!f!c de | f2 F2 z2 |!p! .G2 .F2 .E2 | F2 z |] %34
w: hei- ter, wollt im- mer|wei- ter,|das war mein|Sinn.|
V:2
!p! FF F | F2 FF FF | F2 z F !>!FF | F2 FF FF | E2 z | EF D | E2 E F/G/ AG | ^F2 z!f! F FF | %8
 !>!G2 G"^dim."G G^F | G2 z |"^cresc." G^F =F | E2 E"^dim."F EE | E2 E!pp!E EE | F2 EE EE | F2 E | %15
"^cresc." EE E | !>!E2 EE EE | !>!D2 DF DD | F2!<(! FF F>!<)!F |!>(! F2!>)! E | EF G | %21
 !>!GF F"^dim."E EE | ED DD D^F | ^F>G G!<(!F G^G!<)! |!f!!>(! (A4 =GF | E2 D2 E2)!>)! | F2 z | %27
!p! FF F | F2 FF FF | F2 z"^cresc." F FF | !>!E2 F!f!F FB | A2 D2 z2 |!p! .D2 .C2 .C2 | C2 z |] %34
V:3
!p! AA A | B2 BA B=B | c2 z c !>!dc | =B2 BB BB | c2 z | cc c | c2 cc cc | c2 z!f! c cc | %8
w: Ich ging im|Fel- de so für mich|hin, und nichts zu|su- chen, das war mein|Sinn.|Da stand ein|Blüm- chen so- gleich so|nah, dass ich im|
 !>!=B2 d"^dim."e dc | =B2 z |"^cresc." =Bc d | c2 c"^dim."d c=B | d2 c!pp!c cc | d2 cc cc | d2 c | %15
w: Le- ben nichts lie- ber|sah.|Ich wollt es|bre- chen, da sagt' es|schleu- nig: Ich ha- be|Wur- zeln, die sind gar|heim- lich.|
"^cresc." c^c c | !>!^c2 =B_B AA | !>!A2 AA AA | d2!<(! d=B B>!<)!d |!>(! d=B/c/!>)! c | cc c | %21
w: Im tie- fen|Bo- den bin ich ge-|grün- det; drum sind die|Blü- ten so schön ge-|rün- * * det.|Ich kann nicht|
 !>!c2 c"^dim."_B BB | BA AA Bc | cA/B/ B!<(!c df!<)! |!f!!>(! (f3 c_BA | G2 F2 (3GAB)!>)! | A2 z | %27
w: lie- beln, ich kann nicht|schran- * zen; musst mich nicht|bre- * * chen, musst mich ver-|pflan- * * *||zen.|
!p! AA A | B2 BA B=B | c2 z"^cresc." c cc | !>!c2 c!f!c B^c | d2 A2 z2 |!p! .B2 .A2 .G2 | A2 z |] %34
w: Ich ging im|Wal- de so vor mich|hin; ich war so|hei- ter, wollt im- mer|wei- ter,|das war mein|Sinn.|
V:4
!p! F,F, F, | F,2 F,F, F,F, | F,2 z F, !>!F,F, | G,2 G,G, G,G, | C,2 z | C,C, C, | C,2 C,C, C,C, | %7
 D,2 z!f! D, D,D, | !>!E,2 =B,,"^dim."C, D,D, | G,2 z |"^cresc." G,G, G, | A,2 A,"^dim."D, E,E, | %12
 A,2 A,!pp!A,, C,A,, | D,F,/D,/ A,,A,, C,A,, | D,F,/D,/ A,, |"^cresc." A,,A,, A,, | %16
 !>!^A,,2 =B,,C, ^C,C, | !>!D,2 D,D, F,F, | G,2!<(! G,G, G,>!<)!G, |!>(! G,C,!>)! C, | C,D, E, | %21
 !>!E,F, F,"^dim."C, C,^C, | ^C,D, D,D, B,,A,, | D,2 G,!<(!A, B,=B,!<)! |!f!!>(! (C6 | C,6)!>)! | %26
 F,2 z |!p! F,F, F, | F,2 F,F, F,F, | F,2 z"^cresc." F, G,A, | !>!B,2 A,!f!A, B,G, | D2 D,2 z2 | %32
!p! .B,,2 .C,2 .C,2 | F,2 z |] %34

